X:1
T:A Major                            Francis Hopkinson, 1761
T:Nahum Tate & Nicholas Brady, 1698 New Version (Psalm 23)                     86. 86. (C. M.)
T:Psalm 23
T:Transcribed from  Urania, 1761.
%%score [ 1 2 3 4 ]
L:1/8
Q:1/4=120
M:2/2
K:A
V:1 treble nm="Tr." snm="Tr."
V:2 treble nm="C." snm="C."
V:3 treble-8 nm="T." snm="T."
V:4 bass nm="B." snm="B."
V:1
 E2 | A6 E2 | (A3 B c3) B | (A3 E d3) c |{c} B8 | (B3 A) (G3 F) | E8 | (A3 B c3) d |{c} B8 | %9
w: 1.~The|Lord him-|self,~ _ _ the|migh- * * ty|Lord,|vouch- * safes *|to|be~ _ _ my|guide,|
w: 2.~In|ten- der|grass~ _ _ he|makes~ _ _ me|feed,|And * gent- *|ly|there~ _ _ re-|pose,|
 (c6 d2) | (e3 c d3) B | c4 B4 | A6 z2 || z4 (A3 B) | (c3 B A3) d | (c3 B A3) d | (c3 d e3) f | %17
w: Vouch- *|safes~ _ _ to|be my|guide.|The *|shep- * * herd,|by~ _ _ whose|con- * * stant|
w: And~ _|gent- * * ly|there re-|pose,|Then *|leads~ _ _ me|to~ _ _ cool|shades,~ _ _ and|
 e4 (e3 d) | (c3 B A3) B | c4 B4 | A4 z2 e2 | (c3 B A3 d | c3 d e3 f | c3 B A3 d | c3 d e3 f | %25
w: care, My *|wants~ _ _ are|all sup-|plied, My|wants~ _ _ _|_ _ _ _|||
w: where Re- *|fre- * * shing|wa- ter|flows. Re-|fre- * * *||||
 e3 c d3) B | c4 B4 | A8 |] %28
w: * * * are|all sup-|plied.|
w: * * * shing|wa- ter|flows.|
V:2
 A2 | A4- A2 G2 | A4- A2 G2 | A4- A3 F | G8 | (G3 F) E4 | E8 | (F3 G A3) A | G8 | A8 | %10
w: 3.~He|does~ _ my|wan- * dering|soul~ _ re-|claim,|And,~ _ to|his|end- * * less|praise,|And|
w: 4.~I|pass~ _ the|gloo- * my|vale~ _ of|death,|From~ _ fear|and|dan- * * ger|free,|From|
 (A3 E D3) F | E4 E4 | E6 z2 || z4 E4 | A4- A3 G | A4- A3 F | E4- E3 D | E4 E4 | A4- A3 F | E4 E4 | %20
w: to~ _ _ his|end- less|praise,|In-|struct~ _ with|hum- * ble|zeal~ _ to|walk In|his~ _ most|right- eous|
w: ferar~ _ _ and|dan- ger|free;|For|there~ _ his|ai- * ding|rod~ _ and|staff De-|fend~ _ and|com- fort|
 E4 z2 E2 | (A3 G A3 B | A3 F E3 D | C3 D E3 D | C3 B, A,3 B, | A3 G F3) F | E4 E4 | E8 |] %28
w: ways, In|his~ _ _ _|_ _ _ _|||* * * most|right- eous|ways.|
w: me, De-|fend~ _ _ _|_ _ _ _|||* * * and|com- fort|me.|
V:3
 A2 | (A3 B c2) B2 | (c3 d e3) e | (c3 B A3) A | G8 | (G3 A) B4 | c8 | (c3 B A3) f | e8 | (e6 d2) | %10
w: 5.~In|pre- * * sence|of~ _ _ my|spite- * * ful|foes|He~ _ does|my|ta- * * ble|spread,|He~ _|
w: 6.~Since|God~ _ _ does|thus~ _ _ his|won- * * drous|love|Through~ _ all|my|life~ _ _ ex-|tend,|Through~ _|
 (c3 A B3) B | A4 G4 | A6 z2 || z4 A4 | (A3 B c3) d | (e3 d c3) d | (e3 d c3) B | E4 A4 | %18
w: does~ _ _ my|ta- ble|spread,|He|crowns~ _ _ my|cup~ _ _ with|cheer- * * ful|wine, With|
w: all~ _ _ my|life ex-|tend,|That|life~ _ _ to|him~ _ _ I|will~ _ _ de-|vote, And|
 (A3 B c3) B | A4 G4 | A4 z2 A2 | (A3 B c3 d | e3 d c3 d | e3 d c3 d | e3 d c3 B | c3 B A3) B | %26
w: oil~ _ _ a-|noints my|head, With|oil~ _ _ _|_ _ _ _|||* * * a-|
w: in~ _ _ his|tem- ple|spend, And|in~ _ _ _|_ _ _ _|||* * * his|
 A4 G4 | A8 |] %28
w: noints my|head.|
w: tem- ple|spend.|
V:4
 A,,2 | A,6 B,2 | (C3 B, A,3) E, | (A,3 G, F,3) D, | E,8 | E,4 (E,3 D,) | C,8 | (A,3 G, F,3) D, | %8
 E,8 | A,8 | C,4 D,4 | E,4 E,4 | A,,6 z2 || z4 A,4 | (A,3 D, C,3) B,, | (A,,3 D, C,3) B,, | %16
 (A,,3 B,, C,3) D, | E,4 (C3 B,) | (A,3 G, F,3) D, | %19
"^_______________________________________________________________________________________________\nOriginally published without words; these added by Hopkinson in 1763." E,4 E,4 | %20
 A,,4 z2 A,2 | (A,3 E, C,3 D, | A,3 B, C3 B, | A,3 E, C,3 B,, | A,,3 B,, C,3 D, | C,3 E, F,3) D, | %26
 E,4 E,4 | A,,8 |] %28

